packages/appstore/src/assets/svgs/wallet/trustly-dark.svg

<svg width="128" height="80" viewBox="0 0 128 80" fill="none" xmlns="http://www.w3.org/2000/svg">
<path d="M44.0078 30.7557V46.5624H48.091V30.7557H53.7655V27H38.3333V30.7557H44.0078Z" fill="#0EE06E"/>
<path d="M53.1221 32.3701V46.5739H57.0182V40.3027C57.0182 37.1905 58.5977 36.1726 60.3644 36.1726H61.5929V32.3701H60.1421C58.9136 32.3701 57.767 32.7094 56.8778 34.6165V32.3701H53.1221Z" fill="#0EE06E"/>
<path d="M63.3596 41.3674V32.3701H67.244V40.4899C67.244 42.1513 68.0513 43.3798 69.7127 43.3798C71.3156 43.3798 72.3335 42.1513 72.3335 40.5133V32.3701H76.2179V46.5739H72.5207V44.7838C71.5847 46.1995 70.1924 46.9015 68.4257 46.9015C65.3135 46.8898 63.3596 44.7487 63.3596 41.3674Z" fill="#0EE06E"/>
<path d="M81.2607 41.8004L77.8794 42.5726C78.0315 44.1287 79.5057 46.8314 84.0219 46.8431C88.1286 46.8431 89.9187 44.4797 89.9187 42.2333C89.9187 40.139 88.7721 38.6648 86.3034 38.1032L83.0625 37.3544C82.3605 37.1906 81.9627 36.863 81.9627 36.278C81.9627 35.576 82.7583 35.0963 83.8347 35.0963C85.5312 35.0963 86.1396 36.0089 86.3034 36.8396L89.7081 36.0908C89.5443 34.5113 87.9297 32.1011 83.9166 32.1011C80.1375 32.1011 78.1251 34.0667 78.1251 36.5003C78.1251 38.8871 79.3302 40.1975 82.1733 40.8176L84.3963 41.2973C85.7418 41.5898 86.0343 41.9876 86.0343 42.5258C86.0343 43.1927 85.3089 43.7309 83.9985 43.7309C82.302 43.7309 81.4245 42.9002 81.2607 41.8004Z" fill="#0EE06E"/>
<path d="M97.3832 46.5622C94.8677 46.5622 93.1829 45.1699 93.1829 42.4087V35.7631H90.7961V32.3584H93.1829V29.1994L97.0673 28.0762V32.3584H99.9338V35.7631H97.0673V41.7067C97.0673 42.748 97.6055 43.1575 98.6469 43.1575H100.144V46.5622H97.3832Z" fill="#0EE06E"/>
<path d="M102.25 27.0117V46.5741H106.135V27.0117H102.25Z" fill="#0EE06E"/>
<path d="M117.846 32.3701H122L116 53H112L113.564 46.5739H111.423L107.515 32.3701H111.669L114.594 43.3564L117.846 32.3701Z" fill="#0EE06E"/>
<path d="M15.1143 35.5761H6V27.0117H32.0559V35.5761H23.9478V46.5624H15.1143V42.8418L22.3917 35.5761L15.1143 28.2987V35.5761Z" fill="#0EE06E"/>
</svg>

<svg width="128" height="80" fill="none" xmlns="http://www.w3.org/2000/svg"><path d="M44.008 30.756v15.806h4.083V30.756h5.675V27H38.333v3.756h5.675z" fill="#0EE06E"/><path d="M53.122 32.37v14.204h3.896v-6.271c0-3.112 1.58-4.13 3.346-4.13h1.229V32.37h-1.45c-1.23 0-2.376.34-3.265 2.247V32.37h-3.756zM63.36 41.367V32.37h3.884v8.12c0 1.661.807 2.89 2.469 2.89 1.603 0 2.62-1.229 2.62-2.867V32.37h3.885v14.204H72.52v-1.79c-.936 1.416-2.329 2.117-4.095 2.117-3.112-.011-5.066-2.152-5.066-5.534zM81.26 41.8l-3.38.773c.151 1.556 1.626 4.258 6.142 4.27 4.107 0 5.897-2.363 5.897-4.61 0-2.094-1.147-3.568-3.616-4.13l-3.24-.749c-.703-.163-1.1-.491-1.1-1.076 0-.702.795-1.182 1.872-1.182 1.696 0 2.305.913 2.468 1.744l3.405-.75c-.164-1.579-1.778-3.989-5.791-3.989-3.78 0-5.792 1.966-5.792 4.4 0 2.386 1.205 3.697 4.048 4.317l2.223.48c1.346.292 1.638.69 1.638 1.228 0 .667-.725 1.205-2.035 1.205-1.697 0-2.575-.83-2.738-1.93zM97.383 46.562c-2.515 0-4.2-1.392-4.2-4.153v-6.646h-2.387v-3.405h2.387V29.2l3.884-1.123v4.282h2.867v3.405h-2.867v5.944c0 1.041.539 1.45 1.58 1.45h1.497v3.405h-2.76zM102.25 27.012v19.562h3.885V27.012h-3.885zM117.846 32.37H122L116 53h-4l1.564-6.426h-2.141l-3.908-14.204h4.154l2.925 10.986 3.252-10.986zM15.114 35.576H6v-8.564h26.056v8.564h-8.108v10.986h-8.834v-3.72l7.278-7.266-7.278-7.277v7.277z" fill="#0EE06E"/></svg>
